src/img/mail.svg

<svg width="30" height="25" viewBox="0 0 30 25" fill="none" xmlns="http://www.w3.org/2000/svg">
<path d="M27.3633 0H2.63672C1.18465 0 0 1.29462 0 2.88462V22.1154C0 23.7 1.17938 25 2.63672 25H27.3633C28.8117 25 30 23.7097 30 22.1154V2.88462C30 1.3 28.8206 0 27.3633 0ZM26.9992 1.92308L15.0559 14.9893L3.00932 1.92308H26.9992ZM1.75781 21.7172V3.27365L10.2234 12.4557L1.75781 21.7172ZM3.00076 23.0769L11.4717 13.8096L14.4398 17.029C14.7834 17.4017 15.3379 17.4004 15.6801 17.026L18.5742 13.8598L26.9992 23.0769H3.00076ZM28.2422 21.7171L19.8172 12.5L28.2422 3.28282V21.7171Z" fill="#006572"/>
</svg>

<svg width="30" height="25" fill="none" xmlns="http://www.w3.org/2000/svg"><path d="M27.4 0H2.6C1.2 0 0 1.3 0 2.9V22C0 23.7 1.2 25 2.6 25h24.8c1.4 0 2.6-1.3 2.6-2.9V3C30 1.3 28.8 0 27.4 0zM27 2L15 15 3 2h24zM1.8 21.6V3.3l8.4 9.2-8.4 9.2zM3 23.1l8.5-9.3 3 3.2c.3.4.8.4 1.2 0l2.9-3.1L27 23H3zm25.2-1.4l-8.4-9.2 8.4-9.2v18.4z" fill="#006572"/></svg>
